app/images/src/svg/place-start.svg

<svg width="101" height="20" viewBox="0 0 101 20" fill="none" xmlns="http://www.w3.org/2000/svg">
<path d="M23.5923 4.74518H21.1127C21.0111 4.73505 20.9086 4.74709 20.8123 4.78045C20.7161 4.81381 20.6285 4.86765 20.5559 4.93814C20.4833 5.00863 20.4273 5.09403 20.3921 5.18823C20.3569 5.28243 20.3433 5.38311 20.3523 5.48308V13.4246C20.3456 13.5197 20.3589 13.6151 20.3913 13.7049C20.4237 13.7947 20.4745 13.877 20.5406 13.9467C20.6067 14.0163 20.6867 14.0719 20.7755 14.1099C20.8644 14.1479 20.9603 14.1675 21.0571 14.1675C21.154 14.1675 21.2499 14.1479 21.3388 14.1099C21.4276 14.0719 21.5076 14.0163 21.5737 13.9467C21.6398 13.877 21.6906 13.7947 21.723 13.7049C21.7554 13.6151 21.7687 13.5197 21.762 13.4246V10.5888H23.7235C25.6077 10.5888 26.6271 9.05017 26.6271 7.61076C26.6224 7.22568 26.5397 6.84538 26.384 6.49202C26.2283 6.13867 26.0027 5.81933 25.7202 5.55262C25.4377 5.2859 25.1041 5.07715 24.7388 4.93852C24.3735 4.7999 23.9837 4.73417 23.5923 4.74518ZM25.177 7.65709C25.177 8.30234 24.669 9.19577 23.7168 9.19577H21.762V6.13495H23.6865C23.888 6.13196 24.0879 6.16972 24.2739 6.24589C24.4599 6.32206 24.628 6.43502 24.7678 6.57775C24.9076 6.72048 25.016 6.88994 25.0864 7.07561C25.1568 7.26128 25.1876 7.4592 25.177 7.65709Z" fill="#AAAAAA"/>
<path d="M33.4099 12.7427H29.7627V5.43317C29.7627 5.24887 29.6883 5.07213 29.5558 4.94181C29.4233 4.81149 29.2435 4.73828 29.0562 4.73828C28.8688 4.73828 28.6891 4.81149 28.5566 4.94181C28.424 5.07213 28.3496 5.24887 28.3496 5.43317V13.1927C28.3496 13.7884 28.6625 14.1325 29.2076 14.1325H33.4099C33.5973 14.1325 33.777 14.0593 33.9095 13.929C34.042 13.7986 34.1164 13.6219 34.1164 13.4376C34.1164 13.2533 34.042 13.0766 33.9095 12.9462C33.777 12.8159 33.5973 12.7427 33.4099 12.7427Z" fill="#AAAAAA"/>
<path d="M50.9693 11.9653C50.8781 11.9652 50.7878 11.9834 50.7039 12.0186C50.62 12.0539 50.5443 12.1056 50.4814 12.1705C49.9057 12.6593 49.1694 12.9262 48.4089 12.9216C46.4709 12.9216 45.4582 11.1613 45.4582 9.42073C45.4582 7.76624 46.3767 6.01579 48.3988 6.01579C49.0717 6.01579 50.0238 6.25404 50.4949 6.71729C50.649 6.85469 50.8487 6.9323 51.0567 6.93569C51.1523 6.93448 51.2467 6.9143 51.3341 6.87637C51.4216 6.83843 51.5003 6.78352 51.5657 6.71492C51.631 6.64632 51.6816 6.56545 51.7144 6.47716C51.7472 6.38887 51.7616 6.29497 51.7566 6.20109C51.7548 6.08116 51.7254 5.96318 51.6706 5.85601C51.6159 5.74884 51.5371 5.65527 51.4403 5.58231C50.603 4.89152 49.542 4.51826 48.4492 4.53006C45.5019 4.53006 43.9609 7.03165 43.9609 9.49353C43.9609 11.833 45.3438 14.3478 48.3752 14.3478C49.4784 14.348 50.5479 13.974 51.4033 13.2889C51.4918 13.2089 51.5617 13.111 51.6082 13.0019C51.6546 12.8928 51.6765 12.7751 51.6725 12.6569C51.6768 12.565 51.6615 12.4732 51.6277 12.3873C51.5939 12.3015 51.5423 12.2236 51.4761 12.1585C51.4099 12.0934 51.3306 12.0426 51.2434 12.0093C51.1561 11.9761 51.0628 11.9611 50.9693 11.9653Z" fill="#AAAAAA"/>
<path d="M58.8061 12.743H54.883V9.96675H58.1231C58.2172 9.9767 58.3124 9.96618 58.4019 9.93594C58.4914 9.90571 58.5731 9.85649 58.6411 9.79178C58.7092 9.72706 58.7619 9.64843 58.7957 9.56145C58.8294 9.47446 58.8433 9.38125 58.8363 9.2884C58.8438 9.19397 58.8305 9.09907 58.7974 9.01012C58.7643 8.92117 58.7122 8.84024 58.6446 8.77279C58.577 8.70535 58.4954 8.65297 58.4054 8.61919C58.3155 8.5854 58.2192 8.57101 58.1231 8.57697H54.883V6.14487H58.7085C58.8034 6.15443 58.8993 6.1433 58.9893 6.11229C59.0793 6.08127 59.1613 6.03113 59.2294 5.96542C59.2975 5.89971 59.3501 5.82005 59.3833 5.73211C59.4165 5.64417 59.4297 5.5501 59.4218 5.4566C59.4306 5.36244 59.4183 5.26752 59.3855 5.17862C59.3528 5.08971 59.3004 5.00903 59.2323 4.94232C59.1641 4.87561 59.0819 4.82454 58.9913 4.79275C58.9008 4.76095 58.8042 4.74922 58.7085 4.7584H54.2303C54.1247 4.75235 54.0191 4.76914 53.9208 4.80759C53.8226 4.84603 53.7341 4.90519 53.6616 4.98091C53.5891 5.05662 53.5344 5.14704 53.5012 5.24581C53.4681 5.34458 53.4574 5.44929 53.4699 5.55256V13.3353C53.4699 13.8515 53.591 14.1328 54.2303 14.1328H58.8061C59.2973 14.1328 59.59 13.8747 59.59 13.4445C59.59 13.236 59.516 12.743 58.8061 12.743Z" fill="#AAAAAA"/>
<path d="M65.6619 9.10618C65.4634 9.01353 65.2649 8.92418 65.0798 8.82491L64.7097 8.6363C63.8821 8.21275 63.1015 7.81236 63.1015 7.29285C63.1154 6.95954 63.2596 6.64439 63.5041 6.41317C63.7486 6.18196 64.0745 6.05256 64.4137 6.05198H64.4305C65.1019 6.05614 65.7528 6.27963 66.281 6.68731L66.3449 6.72702C66.5016 6.84907 66.6909 6.92378 66.89 6.9421C66.9841 6.93953 67.0768 6.91874 67.1627 6.88093C67.2487 6.84311 67.3262 6.78901 67.3909 6.72171C67.4556 6.65441 67.5061 6.57523 67.5397 6.48871C67.5732 6.40218 67.5891 6.31 67.5864 6.21743C67.5729 6.06664 67.5255 5.9207 67.4475 5.7902C67.3695 5.6597 67.263 5.54792 67.1356 5.46298C66.4005 4.92601 65.5141 4.62657 64.5987 4.60596C62.8054 4.60596 61.5538 5.73101 61.5538 7.33918C61.5538 8.72895 62.9736 9.44369 64.269 10.0956C64.4709 10.1981 64.6795 10.2875 64.8881 10.3768C65.7662 10.7541 66.2709 11.0386 66.3045 11.7666C66.3483 12.7163 64.4709 13.5005 62.7482 12.4648C62.5774 12.3523 62.3783 12.2882 62.1729 12.2795C62.0827 12.2725 61.9921 12.2849 61.9072 12.3157C61.8224 12.3465 61.7453 12.395 61.6813 12.4579C61.6174 12.5208 61.5681 12.5966 61.5367 12.68C61.5054 12.7635 61.4929 12.8526 61.5 12.9413C61.5038 13.0938 61.548 13.2427 61.6283 13.3733C61.7085 13.5039 61.822 13.6116 61.9575 13.6858C62.6348 14.1097 63.4225 14.3315 64.2252 14.3244C66.5569 14.3244 67.8421 13.3913 67.8421 11.7037C67.8421 10.1121 66.6814 9.57605 65.6619 9.10618Z" fill="#AAAAAA"/>
<path d="M76.0152 4.7981H69.9826C69.885 4.7873 69.7862 4.79763 69.6931 4.82837C69.6 4.85911 69.5149 4.90951 69.4437 4.97605C69.3725 5.04258 69.317 5.12363 69.2811 5.2135C69.2451 5.30338 69.2296 5.3999 69.2356 5.4963C69.2311 5.59188 69.2478 5.68729 69.2844 5.77594C69.321 5.86459 69.3767 5.94438 69.4477 6.0098C69.5187 6.07523 69.6033 6.12473 69.6957 6.1549C69.788 6.18507 69.8859 6.19519 69.9826 6.18457H72.2873V13.4246C72.2721 13.5236 72.28 13.6246 72.3103 13.7201C72.3406 13.8156 72.3925 13.9031 72.4621 13.976C72.5317 14.049 72.6173 14.1054 72.7123 14.1412C72.8073 14.1769 72.9093 14.191 73.0106 14.1824C73.1101 14.1874 73.2094 14.1706 73.3015 14.1332C73.3935 14.0959 73.476 14.0389 73.5429 13.9664C73.6099 13.8939 73.6596 13.8077 73.6886 13.714C73.7176 13.6203 73.725 13.5215 73.7105 13.4246V6.18457H76.0253C76.1204 6.19216 76.216 6.17978 76.3059 6.14824C76.3957 6.1167 76.4778 6.06673 76.5465 6.00164C76.6152 5.93656 76.6691 5.85784 76.7045 5.77071C76.7399 5.68359 76.7561 5.59005 76.752 5.4963C76.7578 5.40083 76.7425 5.30525 76.7071 5.21616C76.6718 5.12706 76.6172 5.04656 76.5472 4.98021C76.4772 4.91385 76.3933 4.8632 76.3015 4.83177C76.2096 4.80033 76.112 4.78884 76.0152 4.7981Z" fill="#AAAAAA"/>
<path d="M84.3353 13.1733L81.4889 5.51635C81.4305 5.31223 81.3058 5.13247 81.134 5.00444C80.9621 4.87642 80.7524 4.80713 80.5367 4.80713C80.3211 4.80713 80.1114 4.87642 79.9395 5.00444C79.7677 5.13247 79.643 5.31223 79.5846 5.51635L76.8324 13.1833C76.7949 13.2898 76.7745 13.4015 76.7718 13.5142C76.7662 13.6006 76.7789 13.6871 76.8092 13.7684C76.8395 13.8497 76.8868 13.9238 76.9479 13.9861C77.009 14.0484 77.0827 14.0975 77.1642 14.1302C77.2457 14.1628 77.3332 14.1784 77.4212 14.176C77.6036 14.1746 77.7805 14.1143 77.9246 14.0043C78.0688 13.8942 78.172 13.7406 78.2186 13.5671L78.915 11.628H82.1652L83.0433 13.7392C83.0919 13.8753 83.1833 13.9926 83.3044 14.0742C83.4254 14.1557 83.5696 14.1971 83.7162 14.1925C83.8058 14.1968 83.8952 14.1826 83.9788 14.1508C84.0624 14.1191 84.1383 14.0705 84.2017 14.0081C84.2651 13.9458 84.3145 13.8711 84.3468 13.7889C84.379 13.7067 84.3935 13.6188 84.3892 13.5307C84.3966 13.4092 84.3783 13.2875 84.3353 13.1733ZM81.7009 10.2317H79.3457L80.53 7.0451L81.7009 10.2317Z" fill="#AAAAAA"/>
<path d="M90.5366 10.3206C91.1593 10.0497 91.6668 9.57416 91.9721 8.97556C92.2774 8.37695 92.3615 7.69255 92.21 7.03965C92.0584 6.38676 91.6807 5.80604 91.1415 5.39704C90.6023 4.98803 89.9353 4.77622 89.2547 4.7979H86.9702C86.2973 4.7979 86.0146 5.1288 86.0146 5.8667V13.3847C86.0146 14.1061 86.5126 14.1822 86.7279 14.1822C87.1653 14.1822 87.4278 13.8844 87.4278 13.388V10.625H89.0528L90.9302 13.8149C90.9873 13.935 91.0797 14.0355 91.1954 14.1033C91.3112 14.1711 91.445 14.2032 91.5796 14.1954C91.668 14.1995 91.7562 14.185 91.8385 14.1528C91.9207 14.1207 91.995 14.0716 92.0565 14.009C92.1179 13.9464 92.1651 13.8716 92.1948 13.7896C92.2246 13.7076 92.2362 13.6204 92.2289 13.5336C92.2256 13.3429 92.176 13.1557 92.0843 12.9876L90.5366 10.3206ZM90.8427 7.69988C90.8499 7.89802 90.8167 8.09556 90.7451 8.28088C90.6735 8.4662 90.5648 8.63554 90.4256 8.77894C90.2864 8.92233 90.1194 9.03687 89.9345 9.1158C89.7496 9.19474 89.5505 9.23648 89.3489 9.23856H87.4278V6.18437H89.3489C89.549 6.18472 89.7469 6.22451 89.9311 6.30139C90.1153 6.37826 90.2819 6.49065 90.4212 6.63193C90.5604 6.77321 90.6695 6.9405 90.7419 7.12393C90.8143 7.30736 90.8486 7.5032 90.8427 7.69988Z" fill="#AAAAAA"/>
<path d="M100.263 4.7981H94.2072C94.1096 4.7873 94.0108 4.79763 93.9177 4.82837C93.8246 4.85911 93.7395 4.90951 93.6683 4.97605C93.5971 5.04258 93.5416 5.12363 93.5057 5.2135C93.4697 5.30338 93.4542 5.3999 93.4602 5.4963C93.4558 5.59188 93.4724 5.68729 93.509 5.77594C93.5456 5.86459 93.6014 5.94438 93.6724 6.0098C93.7434 6.07523 93.8279 6.12473 93.9203 6.1549C94.0126 6.18507 94.1105 6.19519 94.2072 6.18457H96.5119V13.4246C96.4967 13.5239 96.5046 13.6252 96.535 13.721C96.5655 13.8167 96.6177 13.9044 96.6877 13.9774C96.7578 14.0504 96.8437 14.1068 96.9392 14.1423C97.0346 14.1778 97.137 14.1915 97.2386 14.1824C97.3381 14.1874 97.4374 14.1706 97.5294 14.1332C97.6215 14.0959 97.7039 14.0389 97.7709 13.9664C97.8378 13.8939 97.8876 13.8077 97.9165 13.714C97.9455 13.6203 97.953 13.5215 97.9384 13.4246V6.18457H100.263C100.358 6.19216 100.454 6.17978 100.544 6.14824C100.634 6.1167 100.716 6.06673 100.785 6.00164C100.853 5.93656 100.907 5.85784 100.943 5.77071C100.978 5.68359 100.994 5.59005 100.99 5.4963C100.996 5.40174 100.981 5.30709 100.946 5.21876C100.911 5.13043 100.857 5.05047 100.789 4.98428C100.72 4.91809 100.637 4.86721 100.546 4.8351C100.456 4.80298 100.359 4.79036 100.263 4.7981Z" fill="#AAAAAA"/>
<path d="M42.9283 13.1431L40.0819 5.48608C40.0235 5.28196 39.8988 5.1022 39.7269 4.97417C39.5551 4.84614 39.3453 4.77686 39.1297 4.77686C38.9141 4.77686 38.7044 4.84614 38.5325 4.97417C38.3606 5.1022 38.236 5.28196 38.1776 5.48608L35.4254 13.153C35.3846 13.2588 35.363 13.3708 35.3614 13.4839C35.3563 13.5704 35.3695 13.6571 35.4002 13.7384C35.4309 13.8196 35.4784 13.8938 35.5398 13.956C35.6012 14.0182 35.6751 14.0672 35.7567 14.0999C35.8384 14.1325 35.926 14.1481 36.0142 14.1457C36.1986 14.1438 36.377 14.0812 36.521 13.9678C36.6649 13.8544 36.7661 13.6969 36.8082 13.5203L37.508 11.5812H40.7582L41.6363 13.6924C41.6825 13.83 41.7734 13.9488 41.895 14.0307C42.0165 14.1126 42.1621 14.153 42.3092 14.1457C42.3985 14.1489 42.4875 14.134 42.5706 14.1019C42.6537 14.0698 42.7292 14.0212 42.7924 13.9591C42.8555 13.897 42.905 13.8227 42.9376 13.7409C42.9703 13.6592 42.9854 13.5717 42.9821 13.4839C42.9857 13.368 42.9675 13.2524 42.9283 13.1431ZM40.2939 10.2014H37.9387L39.123 7.01483L40.2939 10.2014Z" fill="#AAAAAA"/>
<path d="M14.0066 2.41887C13.2561 1.66016 12.3599 1.05563 11.3699 0.640395C10.38 0.225156 9.31597 0.00747767 8.23975 0L8.18592 0C6.03001 0.00936178 3.96407 0.85107 2.433 2.34386C0.901931 3.83666 0.0282159 5.86112 8.65155e-06 7.98127V19.1557C-0.000519481 19.27 0.0231377 19.3832 0.0694762 19.488C0.115815 19.5928 0.183821 19.687 0.269171 19.7646C0.428017 19.9131 0.638803 19.9959 0.857965 19.9959C1.07713 19.9959 1.28791 19.9131 1.44676 19.7646L5.61205 15.7276C6.43718 15.9181 7.27652 16.0432 8.122 16.1015H8.19265C10.3426 16.0661 12.3951 15.2136 13.9199 13.7226C15.4447 12.2316 16.3234 10.2179 16.3718 8.10371C16.3793 7.04941 16.174 6.00413 15.768 5.02834C15.3621 4.05255 14.7633 3.16562 14.0066 2.41887ZM8.19265 14.864H8.13209C7.29835 14.8002 6.47129 14.6696 5.65916 14.4735C5.5229 14.4445 5.38147 14.4493 5.24757 14.4875C5.11366 14.5256 4.99149 14.5958 4.89204 14.6919L1.25834 18.1994C1.25834 14.0334 1.25834 8.14341 1.25834 7.99451C1.28299 6.19996 2.02245 4.48654 3.31783 3.22245C4.61321 1.95836 6.36111 1.24449 8.18592 1.23425H8.23303C9.14547 1.2405 10.0476 1.42509 10.8868 1.77729C11.7261 2.12949 12.4858 2.64227 13.1217 3.28582C13.7649 3.91598 14.2746 4.66545 14.6211 5.49078C14.9677 6.3161 15.1442 7.20086 15.1404 8.09378C15.0996 9.88758 14.3525 11.5958 13.0566 12.8586C11.7606 14.1215 10.0169 14.8404 8.19265 14.864Z" fill="#AAAAAA"/>
<path d="M9.92843 4.9141C9.78108 4.83551 9.60803 4.81766 9.4473 4.86447C9.28649 4.91252 9.15121 5.02061 9.07047 5.16559C8.99112 5.31058 8.9731 5.48051 9.02035 5.63848C9.06759 5.79645 9.17627 5.92973 9.32281 6.00938C9.78418 6.25501 10.1505 6.64318 10.3652 7.11396C10.5799 7.58474 10.6311 8.11194 10.5108 8.61416C10.3905 9.11638 10.1054 9.56568 9.69962 9.8927C9.29382 10.2197 8.78984 10.4063 8.26551 10.4235C7.74118 10.4408 7.22565 10.2878 6.79852 9.9882C6.37139 9.68861 6.05643 9.25905 5.90225 8.76587C5.74808 8.27269 5.76327 7.7433 5.94549 7.25946C6.12771 6.77561 6.46681 6.36422 6.91044 6.08879C6.98451 6.04716 7.04926 5.99122 7.10077 5.92435C7.15229 5.85747 7.18952 5.78103 7.21022 5.69963C7.23092 5.61823 7.23467 5.53356 7.22123 5.4507C7.20779 5.36784 7.17745 5.28851 7.13203 5.21749C7.08661 5.14646 7.02705 5.08521 6.95694 5.03741C6.88682 4.98961 6.8076 4.95625 6.72403 4.93935C6.64047 4.92245 6.55429 4.92234 6.47068 4.93904C6.38708 4.95574 6.30777 4.98891 6.23753 5.03654C5.56026 5.45881 5.04304 6.08849 4.76563 6.82846C4.48823 7.56844 4.46604 8.37762 4.7025 9.13122C4.93896 9.88482 5.42093 10.541 6.07408 10.9985C6.72724 11.4561 7.5153 11.6896 8.31676 11.6631C9.11821 11.6366 9.88854 11.3515 10.509 10.8518C11.1294 10.3522 11.5654 9.66561 11.7499 8.89808C11.9343 8.13056 11.8569 7.32468 11.5295 6.60471C11.2022 5.88473 10.6431 5.29067 9.93852 4.9141H9.92843Z" fill="#AAAAAA"/>
<path d="M8.10812 4.05029C8.02505 4.05029 7.9428 4.06638 7.86606 4.09765C7.78932 4.12891 7.71959 4.17473 7.66085 4.2325C7.60211 4.29026 7.55552 4.35884 7.52373 4.43432C7.49195 4.50979 7.47559 4.59069 7.47559 4.67238V7.31957C7.47559 7.48456 7.54223 7.64279 7.66085 7.75945C7.77947 7.87612 7.94036 7.94166 8.10812 7.94166C8.27588 7.94166 8.43676 7.87612 8.55539 7.75945C8.67401 7.64279 8.74065 7.48456 8.74065 7.31957V4.67238C8.74065 4.59069 8.72429 4.50979 8.6925 4.43432C8.66072 4.35884 8.61412 4.29026 8.55539 4.2325C8.49665 4.17473 8.42692 4.12891 8.35018 4.09765C8.27344 4.06638 8.19118 4.05029 8.10812 4.05029Z" fill="#AAAAAA"/>
</svg>

<svg width="101" height="20" fill="none" xmlns="http://www.w3.org/2000/svg"><path d="M23.592 4.745h-2.48a.704.704 0 0 0-.556.193.681.681 0 0 0-.204.545v7.942a.684.684 0 0 0 .189.522.708.708 0 0 0 .516.22.717.717 0 0 0 .517-.22.693.693 0 0 0 .188-.522v-2.836h1.962c1.884 0 2.903-1.539 2.903-2.978a2.86 2.86 0 0 0-.243-1.119 2.901 2.901 0 0 0-.664-.94 2.958 2.958 0 0 0-.981-.613 2.995 2.995 0 0 0-1.147-.194Zm1.585 2.912c0 .645-.508 1.539-1.46 1.539h-1.955V6.135h1.924a1.492 1.492 0 0 1 1.082.443 1.442 1.442 0 0 1 .409 1.08Zm8.233 5.086h-3.647v-7.31a.69.69 0 0 0-.207-.491.713.713 0 0 0-1 0 .689.689 0 0 0-.206.491v7.76c0 .595.313.94.858.94h4.202a.713.713 0 0 0 .5-.204.69.69 0 0 0 0-.983.713.713 0 0 0-.5-.203Zm17.56-.778a.684.684 0 0 0-.489.206 3.173 3.173 0 0 1-2.072.75c-1.938 0-2.95-1.76-2.95-3.5 0-1.655.918-3.405 2.94-3.405.673 0 1.625.238 2.096.701a.866.866 0 0 0 .562.219.72.72 0 0 0 .509-.221.697.697 0 0 0 .19-.514.784.784 0 0 0-.316-.619 4.623 4.623 0 0 0-2.99-1.052c-2.948 0-4.49 2.502-4.49 4.964 0 2.339 1.384 4.854 4.415 4.854a4.844 4.844 0 0 0 3.028-1.06.82.82 0 0 0 .27-.631.653.653 0 0 0-.197-.498.676.676 0 0 0-.507-.194Zm7.836.778h-3.923V9.967h3.24a.656.656 0 0 0 .518-.175.635.635 0 0 0 .195-.504.65.65 0 0 0-.191-.515.674.674 0 0 0-.522-.196h-3.24V6.145h3.825a.66.66 0 0 0 .521-.18.637.637 0 0 0 .193-.508.633.633 0 0 0-.19-.515.654.654 0 0 0-.523-.184H54.23a.734.734 0 0 0-.568.223.71.71 0 0 0-.192.572v7.782c0 .516.121.798.76.798h4.576c.491 0 .784-.258.784-.688 0-.209-.074-.702-.784-.702Zm6.856-3.637c-.199-.092-.397-.182-.582-.281l-.37-.189c-.828-.423-1.608-.824-1.608-1.343.013-.333.158-.649.402-.88.245-.231.57-.36.91-.361h.016a3.06 3.06 0 0 1 1.851.635l.064.04c.157.122.346.197.545.215a.726.726 0 0 0 .5-.22.704.704 0 0 0 .196-.505 1.008 1.008 0 0 0-.45-.754 4.473 4.473 0 0 0-2.537-.857c-1.794 0-3.045 1.125-3.045 2.733 0 1.39 1.42 2.105 2.715 2.757.202.102.41.191.62.28.877.378 1.382.663 1.416 1.39.043.95-1.834 1.735-3.557.699a1.133 1.133 0 0 0-.575-.185.635.635 0 0 0-.492.178.617.617 0 0 0-.181.483.884.884 0 0 0 .458.745 4.206 4.206 0 0 0 2.267.638c2.332 0 3.617-.933 3.617-2.62 0-1.592-1.16-2.128-2.18-2.598Zm10.353-4.308h-6.032a.684.684 0 0 0-.54.178.66.66 0 0 0-.207.52.652.652 0 0 0 .212.514.675.675 0 0 0 .535.175h2.304v7.24a.65.65 0 0 0 .175.551.674.674 0 0 0 .549.206.682.682 0 0 0 .532-.216.659.659 0 0 0 .167-.541v-7.24h2.315a.683.683 0 0 0 .521-.183.661.661 0 0 0 .206-.506.651.651 0 0 0-.205-.516.675.675 0 0 0-.532-.182Zm8.32 8.375L81.49 5.516a.973.973 0 0 0-.355-.512 1 1 0 0 0-1.195 0 .973.973 0 0 0-.354.512l-2.753 7.667a1.074 1.074 0 0 0-.06.331.614.614 0 0 0 .176.472.633.633 0 0 0 .473.19.84.84 0 0 0 .504-.172.817.817 0 0 0 .294-.437l.696-1.939h3.25l.878 2.111a.68.68 0 0 0 .261.335.698.698 0 0 0 .412.119.65.65 0 0 0 .486-.185.63.63 0 0 0 .187-.477.865.865 0 0 0-.054-.358Zm-2.634-2.941h-2.355l1.184-3.187 1.17 3.187Zm8.836.088a2.913 2.913 0 0 0 1.435-1.344c.305-.6.39-1.283.238-1.936a2.881 2.881 0 0 0-1.069-1.643 2.967 2.967 0 0 0-1.886-.6H86.97c-.673 0-.955.332-.955 1.07v7.518c0 .721.498.797.713.797.437 0 .7-.298.7-.794v-2.763h1.625l1.877 3.19a.67.67 0 0 0 .65.38.63.63 0 0 0 .477-.186.61.61 0 0 0 .172-.475 1.183 1.183 0 0 0-.145-.546l-1.547-2.667Zm.306-2.62a1.464 1.464 0 0 1-.417 1.079 1.511 1.511 0 0 1-1.077.46h-1.921V6.184h1.92a1.519 1.519 0 0 1 1.073.448 1.47 1.47 0 0 1 .422 1.068Zm9.42-2.902h-6.056a.684.684 0 0 0-.539.178.66.66 0 0 0-.208.52.654.654 0 0 0 .212.514.675.675 0 0 0 .535.175h2.305v7.24a.653.653 0 0 0 .176.552.674.674 0 0 0 .55.205.681.681 0 0 0 .533-.216.659.659 0 0 0 .167-.541v-7.24h2.325a.686.686 0 0 0 .522-.183.66.66 0 0 0 .205-.505.642.642 0 0 0-.044-.278.675.675 0 0 0-.683-.42Zm-57.335 8.345-2.846-7.657a.972.972 0 0 0-.355-.512 1 1 0 0 0-1.194 0 .972.972 0 0 0-.355.512l-2.753 7.667a.957.957 0 0 0-.064.33.617.617 0 0 0 .179.473.638.638 0 0 0 .474.19.833.833 0 0 0 .507-.178.81.81 0 0 0 .287-.448l.7-1.939h3.25l.878 2.111a.663.663 0 0 0 .259.339.681.681 0 0 0 .414.115.66.66 0 0 0 .483-.187.638.638 0 0 0 .19-.475.924.924 0 0 0-.054-.34Zm-2.634-2.942h-2.355l1.184-3.186 1.17 3.186ZM14.007 2.419A8.132 8.132 0 0 0 11.37.64 8.242 8.242 0 0 0 8.24 0h-.054a8.294 8.294 0 0 0-5.753 2.344A8.022 8.022 0 0 0 0 7.98v11.175a.812.812 0 0 0 .27.609.862.862 0 0 0 1.177 0l4.165-4.037c.825.19 1.665.315 2.51.374h.07a8.39 8.39 0 0 0 5.728-2.38 8.119 8.119 0 0 0 2.452-5.618 7.858 7.858 0 0 0-.604-3.076 7.966 7.966 0 0 0-1.761-2.61ZM8.193 14.864h-.06a15.61 15.61 0 0 1-2.474-.39.853.853 0 0 0-.767.218l-3.634 3.507V7.995a6.798 6.798 0 0 1 2.06-4.773 7.028 7.028 0 0 1 4.868-1.988h.047a6.984 6.984 0 0 1 2.654.543c.84.352 1.599.865 2.235 1.509a6.74 6.74 0 0 1 1.5 2.205c.346.825.522 1.71.518 2.603a6.871 6.871 0 0 1-2.083 4.765 7.102 7.102 0 0 1-4.864 2.005Z" fill="#AAA"/><path d="M9.928 4.914a.64.64 0 0 0-.858.251.616.616 0 0 0 .253.844 2.37 2.37 0 0 1 1.042 1.105c.215.47.266.998.146 1.5-.12.502-.406.952-.811 1.279a2.417 2.417 0 0 1-2.901.096c-.428-.3-.743-.73-.897-1.223a2.313 2.313 0 0 1 .043-1.507c.183-.483.522-.895.965-1.17a.63.63 0 0 0 .3-.39.612.612 0 0 0-.253-.662.638.638 0 0 0-.72 0 3.606 3.606 0 0 0-1.471 1.791c-.278.74-.3 1.55-.064 2.303.237.754.719 1.41 1.372 1.867a3.697 3.697 0 0 0 4.435-.146 3.586 3.586 0 0 0 1.24-1.954 3.539 3.539 0 0 0-.22-2.293 3.617 3.617 0 0 0-1.59-1.69h-.01Z" fill="#AAA"/><path d="M8.108 4.05a.642.642 0 0 0-.447.183.621.621 0 0 0-.185.44V7.32c0 .165.066.323.185.44a.638.638 0 0 0 .894 0 .617.617 0 0 0 .186-.44V4.672a.613.613 0 0 0-.186-.44.633.633 0 0 0-.447-.182Z" fill="#AAA"/></svg>
